
do
let midiScore' = midiScore {timeSignatures = [], bpm = 80}
toFile "/Users/mrreason/Documents/MidiExample/1.mid" (midiFile midiScore'
  [
    midiNoteTrack ElectricGuitarClean (struct "<[t*4]>" $  s "piano" <| note "[c'maj'4]") midiScore
    , midiDrumTrack (s "[bd(5,8), ~ sn, hh*8, <[cr@1 ~@7] ~>]") midiScore])
